newicons/suika_game.svg

<?xml version="1.0" encoding="UTF-8" standalone="no"?>
<svg
   viewBox="0 0 48 48"
   version="1.1"
   id="svg1"
   sodipodi:docname="suika_game.svg"
   xml:space="preserve"
   inkscape:version="1.4.2 (ebf0e940d0, 2025-05-08)"
   xmlns:inkscape="http://www.inkscape.org/namespaces/inkscape"
   xmlns:sodipodi="http://sodipodi.sourceforge.net/DTD/sodipodi-0.dtd"
   xmlns="http://www.w3.org/2000/svg"
   xmlns:svg="http://www.w3.org/2000/svg"><sodipodi:namedview
     id="namedview1"
     pagecolor="#505050"
     bordercolor="#eeeeee"
     borderopacity="1"
     inkscape:showpageshadow="0"
     inkscape:pageopacity="0"
     inkscape:pagecheckerboard="0"
     inkscape:deskcolor="#505050"
     inkscape:zoom="3.6666667"
     inkscape:cx="3.6818182"
     inkscape:cy="0.54545455"
     inkscape:window-width="1516"
     inkscape:window-height="902"
     inkscape:window-x="0"
     inkscape:window-y="0"
     inkscape:window-maximized="1"
     inkscape:current-layer="svg1" /><defs
     id="defs1"><style
       id="style1">.a{fill:none;stroke:#fff;stroke-linecap:round;stroke-linejoin:round;}</style></defs><circle
     class="a"
     cx="24"
     cy="24"
     r="21.5"
     id="circle1"
     style="display:inline" /><g
     id="g23"
     transform="matrix(1.0117396,0.44266569,-0.43941792,1.0192174,9.8369022,-10.421446)"
     style="display:inline;stroke-width:0.903251"><g
       id="g24"
       transform="translate(0.85775589,1.3357472)"
       style="stroke-width:0.903251"><path
         style="fill:none;stroke:#ffffff;stroke-width:0.903251;stroke-linecap:round;stroke-linejoin:round"
         d="m 25.579271,21.850154 -0.772206,4.061673"
         id="path19" /><path
         style="fill:none;stroke:#ffffff;stroke-width:0.903251;stroke-linecap:round;stroke-linejoin:round"
         d="m 21.311733,23.703628 3.495332,2.208199"
         id="path20" /></g><circle
       style="fill:none;stroke:#ffffff;stroke-width:0.903249;stroke-linecap:round;stroke-linejoin:round"
       id="path21"
       cx="20.334488"
       cy="30.231497"
       r="1.9249066"
       transform="rotate(-23.476233)" /><g
       id="g26"
       transform="rotate(-90,21.139976,28.622698)"
       style="stroke-width:0.903251"><path
         style="fill:none;stroke:#ffffff;stroke-width:0.903251;stroke-linecap:round;stroke-linejoin:round"
         d="m 25.579271,21.850154 -0.772206,4.061673"
         id="path25" /><path
         style="fill:none;stroke:#ffffff;stroke-width:0.903251;stroke-linecap:round;stroke-linejoin:round"
         d="m 21.311733,23.703628 3.495332,2.208199"
         id="path26" /></g></g><g
     id="g4"
     style="display:inline"><path
       class="a"
       id="ellipse2"
       style="display:inline;stroke-width:1"
       sodipodi:type="arc"
       sodipodi:cx="24"
       sodipodi:cy="24"
       sodipodi:rx="21.5"
       sodipodi:ry="17.163084"
       sodipodi:start="4.1015237"
       sodipodi:end="4.0142573"
       sodipodi:arc-type="arc"
       d="M 11.668106,9.940825 A 21.5,17.163084 0 0 1 41.338559,13.851302 21.5,17.163084 0 0 1 37.088371,37.61639 21.5,17.163084 0 0 1 7.2324835,34.742777 21.5,17.163084 0 0 1 10.180067,10.852315"
       sodipodi:open="true" /><path
       class="a"
       id="ellipse3"
       style="display:inline;stroke-width:1"
       sodipodi:type="arc"
       sodipodi:cx="24"
       sodipodi:cy="23.999998"
       sodipodi:rx="21.5"
       sodipodi:ry="12.341902"
       sodipodi:start="2.268928"
       sodipodi:end="2.1816616"
       sodipodi:arc-type="arc"
       d="M 10.180067,33.454444 A 21.5,12.341902 0 0 1 7.2324835,16.274912 21.5,12.341902 0 0 1 37.088371,14.208509 21.5,12.341902 0 0 1 41.338559,31.297884 21.5,12.341902 0 0 1 11.668106,34.109892"
       sodipodi:open="true" /><path
       class="a"
       id="path49"
       style="display:inline;stroke:#ffffff;stroke-width:0.999996"
       d="M 36.331893,17.839386 A 21.5,7.5207191 0 0 1 44.003978,26.756351 21.5,7.5207191 0 0 1 21.007779,31.447526 21.5,7.5207191 0 0 1 2.5989818,24.720827 21.5,7.5207191 0 0 1 17.000284,16.889019"
       sodipodi:type="arc"
       sodipodi:arc-type="arc"
       sodipodi:start="5.3232542"
       sodipodi:end="4.3807764"
       sodipodi:ry="7.5207191"
       sodipodi:rx="21.5"
       sodipodi:cy="23.999998"
       sodipodi:cx="24"
       sodipodi:open="true" /><path
       class="a"
       id="path50"
       style="display:inline;stroke:#ffffff;stroke-width:0.999996"
       d="m 18.79868,16.702677 a 21.5,7.5207191 0 0 1 15.951321,0.784188"
       sodipodi:type="arc"
       sodipodi:arc-type="arc"
       sodipodi:start="4.4680429"
       sodipodi:end="5.2359878"
       sodipodi:ry="7.5207191"
       sodipodi:rx="21.5"
       sodipodi:cy="23.999998"
       sodipodi:cx="24"
       sodipodi:open="true" /></g></svg>

<?xml version="1.0" encoding="UTF-8"?><svg id="b" xmlns="http://www.w3.org/2000/svg" viewBox="0 0 48 48"><defs><style>.q{fill:none;stroke:#fff;stroke-linecap:round;stroke-linejoin:round;}</style></defs><circle id="c" class="q" cx="23.9994" cy="24" r="21.4993"/><g id="d"><g id="e"><path id="f" class="q" d="M26.3953,24.9128l-2.5659,3.7979"/><path id="g" class="q" d="M21.2635,24.9128l2.5659,3.7979"/></g><ellipse id="h" class="q" cx="32.2656" cy="23.1717" rx="2.1231" ry="2.1389"/><g id="i"><path id="j" class="q" d="M13.7464,20.5867l3.7698,2.585"/><path id="k" class="q" d="M13.7464,25.7567l3.7698-2.585"/></g></g><g id="l"><path id="m" class="q" d="M11.6683,9.9408c9.5764-5.3532,22.7558-3.6161,29.6686,3.9105,6.9128,7.5266,5.0249,18.0835-4.2499,23.7651-9.2748,5.6816-22.5366,4.4051-29.8541-2.8736C-.0845,27.4641,1.2248,16.8515,10.1803,10.8523"/><path id="n" class="q" d="M10.1803,33.4544C1.2248,29.1405-.0845,21.509,7.2329,16.2749c7.3174-5.2341,20.5792-6.152,29.8541-2.0664s11.1627,11.6771,4.2499,17.0894-20.0922,6.6615-29.6686,2.812"/><path id="o" class="q" d="M36.3306,17.8394c8.1425,1.9945,11.3147,5.6816,7.6716,8.917s-13.1514,5.1751-22.9948,4.6912c-9.8434-.4839-17.4549-3.2654-18.4077-6.7267-.9527-3.4613,5.0018-6.6997,14.4004-7.8318"/><path id="p" class="q" d="M18.7984,16.7027c5.4064-.4715,11.1249-.1904,15.9503.7842"/></g></svg>
